packages/kaspersky-hexa-ui-icons/src/iconsSVGs/16/Passkey.svg

<svg width="16" height="16" viewBox="0 0 16 16" fill="none" xmlns="http://www.w3.org/2000/svg">
<path fill-rule="evenodd" clip-rule="evenodd" d="M5.02328 4.06144C5.02328 2.42594 6.34912 1.1001 7.98463 1.1001C9.62013 1.1001 10.946 2.42594 10.946 4.06144C10.946 5.69694 9.62013 7.02278 7.98463 7.02278C6.34912 7.02278 5.02328 5.69694 5.02328 4.06144ZM7.98463 2.4001C7.06709 2.4001 6.32329 3.14391 6.32329 4.06144C6.32329 4.97897 7.06709 5.72278 7.98463 5.72278C8.90216 5.72278 9.64597 4.97897 9.64597 4.06144C9.64597 3.14391 8.90216 2.4001 7.98463 2.4001Z" fill="black"/>
<path fill-rule="evenodd" clip-rule="evenodd" d="M13.4463 10.8233C14.2615 10.4801 14.8338 9.67384 14.8338 8.73388C14.8338 7.48245 13.8193 6.46796 12.5679 6.46796C11.3164 6.46796 10.3019 7.48245 10.3019 8.73388C10.3019 9.67895 10.8805 10.4889 11.7028 10.8288L11.7028 14.6568L12.732 15.686L14.142 14.2759L13.4386 13.3872L14.142 12.5726L13.4386 11.7819L13.4463 10.8233ZM13.1198 7.95853C13.1198 8.26339 12.8727 8.51052 12.5678 8.51052C12.263 8.51052 12.0158 8.26339 12.0158 7.95853C12.0158 7.65367 12.263 7.40653 12.5678 7.40653C12.8727 7.40653 13.1198 7.65367 13.1198 7.95853Z" fill="black"/>
<path d="M4.08369 13.6001H10.4028L10.4028 14.9001H4.08369C2.9515 14.9001 2.03369 13.9823 2.03369 12.8501V11.7826C2.03369 9.76676 3.66785 8.1326 5.68369 8.1326H9.05243C9.01924 8.32807 9.00195 8.52897 9.00195 8.73389C9.00195 8.9731 9.0255 9.20672 9.07037 9.4326H5.68369C4.38582 9.4326 3.33369 10.4847 3.33369 11.7826V12.8501C3.33369 13.2643 3.66948 13.6001 4.08369 13.6001Z" fill="black"/>
</svg>

<svg xmlns="http://www.w3.org/2000/svg" width="16" height="16" fill="none" viewBox="0 0 16 16"><path fill="#000" fill-rule="evenodd" d="M5.0233 4.0613C5.0233 2.4258 6.349 1.1 7.9846 1.1s2.9614 1.3258 2.9614 2.9613-1.3259 2.9614-2.9614 2.9614-2.9613-1.3259-2.9613-2.9614M7.9846 2.4c-.9175 0-1.6613.7438-1.6613 1.6613s.7438 1.6614 1.6613 1.6614S9.646 4.9789 9.646 4.0613 8.902 2.4 7.9846 2.4m6.8492 6.3338c0 .94-.5723 1.7462-1.3875 2.0893l-.0077.9587.7034.7906-.7034.8146.7034.8888-1.41 1.4101-1.0292-1.0292v-3.828c-.8223-.3399-1.4008-1.1499-1.4008-2.095 0-1.2514 1.0144-2.2659 2.2659-2.2659s2.2659 1.0145 2.2659 2.266m-2.266-.2234a.552.552 0 1 0 0-1.104.552.552 0 0 0 0 1.104M4.0837 13.6h6.3191v1.3H4.0837c-1.1322 0-2.05-.9178-2.05-2.05v-1.0675c0-2.0159 1.6342-3.65 3.65-3.65h3.3687a3.6 3.6 0 0 0-.0504.6013c0 .2392.0235.4728.0684.6987H5.6837c-1.2979 0-2.35 1.0521-2.35 2.35V12.85a.75.75 0 0 0 .75.75"/></svg>
